X:1
T:Je ne suis devin
T:Etienne du Tertre
T:Source : Livre VI de 25 chansons nouvelles à 4 parties---Paris---N.du Chemin---1550. Editor : André Vierendeels (12/03/18). Notes : Original clefs : C1, C2, C4, F3 Original note values have been halved Original note values have been quartered in 3-beat measures Editorial accidentals above the stave Square bracket indivates ligature Dotted bracket indicates black notes
T:Je ne suis devin
T:©
T:©
T:©
C:Etienne du Tertre
Z:©
%%score [ 1 2 3 4 ]
L:1/8
Q:1/4=120
M:2/2
K:F
V:1 treble nm="Soprano" snm="S"
V:2 treble nm="Alto" snm="A"
V:3 treble-8 nm="Tenor" snm="T"
V:4 bass nm="Bass" snm="B"
V:1
 B2 BB AFBA | G2 FE B2 A2 | G2 F2 G2 A2- | AG G4 F2 |1[M:2/4] G4 :|2[M:3/4] G4 A2 || B4 c2 | %7
w: Je ne suis de- vin ne pro-|phè- te, et si lis|au coeur de m'a-|* * mi- *|e,|e, si|donc- ques|
w: Ce que ie veulx el- le sou-|hait- te, ce que me|des- plaist luy en-|* * nuy _|_|||
 d4 c2 | B4 c2 |[M:2/2] B2 d4 c2 | d2 B2 B2 B2 | G2 c3 B B2- | B2 A2 B2 B2 | B2 B2 A2 A2 | %14
w: sça- voir|i'ay en-|vi- * *|e, que ce qu'el-|le faict _ pour|_ le seur, de-|man- der le fault|
w: |||||||
 c2 c2 B4 |: B2 BB AFAA | G2 F2 G4 | G2 G2 F2 F2 |"^b" E2 G4 F2 | GBcc A2 B2 | A2 G4 F2 | G8 :| %22
w: à mon coeur,|il me dict que la da- moi-|sel- le, com-|me'aus- si là i'ay|mis mon _|heur, sou- vent me de- si-|re pres d'el-|le.|
w: ||||||||
V:2
 G2 GG FFFF | D2 DD F2 F2 |"^b" D2 D2 B,2 E2- | E2 C2 D4 |1[M:2/4]"^#" D4 :|2[M:3/4] D4 F2 || %6
w: Je ne suis de- vin ne pro-|phè- te, et si lis|au coeur de m'a-|* mi- *|e,|e, si|
w: Ce que ie veulx el- le sou-|hait- te, ce que me|des- plaist luy en-|nuy _ _|_||
 G4 A2 | B4 A2 | G4 F2 |[M:2/2] FEFG A4 | F2 G2 G2 G2 | E2 G2 F2 E2 | F4 F4 | F2 F2 F2 F2 | %14
w: donc- ques|sça- voir|i'ay en-|vi- * * * *|e, que ce qu'el-|le faict pour le|seur, de-|man- der le fault|
w: ||||||||
 G2 G2 G4 |: G2 GG FFFF | D2 D2 z4 |"^b" E4 D2 D2 | C2 B,2 D2 D2 | B,GGG F2 F2 | F2 D2 D4 | D8 :| %22
w: à mon coeur,|il me dict que la da- moi-|sel- le,|com- me'aus- si|là i'ay mis mon|heur, sou- vent me de- si-|re pres d'el-|le.|
w: ||||||||
V:3
 d2 dd ddcc | B2 AG d2 c2 | B2 A2 G2 c2 | B2 AG A4 |1[M:2/4] G4 :|2[M:3/4] G4 d2 || d4 f2 | f4 f2 | %8
w: Je ne suis de- vin ne pro-|phè- te, et si lis|au coeur de m'a-|mi- * * *|e,|e, si|donc- ques|sça- voir|
w: Ce que ie veulx el- le sou-|hait- te, ce- que me|des- plaist luy en-|nuy _ _ _|_||||
 d4 c2 |[M:2/2] d4 e4 | d2 d2 d2 d2 | c2 c2 A2 B2 |"^b" c4 d4 | d2 d2 c2 c2 | e2 e2 d4 |: %15
w: i'ay en-|vi- *|e, que ce qu'el-|le faict pour le|seur, de-|man- der le fault|à mon coeur,|
w: |||||||
 d2 dd ddcc | B2 A2 B4 | B2 B2 B2 B2 | G4 A4 |"^b""^b" Gdee c2 d2 | c2 B2 A4 | G8 :| %22
w: il me dict que la da- moi-|sel- le, com-|me'aus- si là i'ay|mis mon|heur, sou- vent me de- si-|re pres d'el-|le.|
w: |||||||
V:4
 G,2 G,G, D,D,F,F, | G,2 D,B, B,2 F,2 |"^b" G,2 D,2 E,2 C,2 |"^b" E,4 D,4 |1[M:2/4] G,4 :|2 %5
w: Je ne suis de- vin ne pro-|phè- te, et si lis|au coeur de m'a-|mi- *|e,|
w: Ce que ie veulx el- le sou-|hait- te, ce que me|des- plaist luy en-|nuy _|_|
[M:3/4] G,4 D,2 || G,4 F,2 | B,4 D,2 | G,4 A,2 |[M:2/2] B,4 A,4 | D,2 G,2 G,2 G,2 | %11
w: e, si|donc- ques|sça- voir|iay en-|vi- *|e, que ce qu'el-|
w: ||||||
 C,2 C,2 F,2 G,2 | F,4 B,4 | B,2 B,2 F,2 F,2 | C2 C2 G,4 |: G,2 G,G, D,D,F,F, | G,2 D,2 _E,4 | %17
w: le faict pour le|seur, de-|man- der le fault|à mon coeur,|il me dict que la da- moi-|sel- le, com-|
w: ||||||
"^#" _E,2 E,2 B,,2 B,,2 |"^b" C,2 E,2 D,4 | G,2 C,C, F,2 B,,2 | F,2 G,2 D,4 | G,8 :| %22
w: me'aus- si là i'ay|mis mon heur,|sou- vent me de- si-|re pres d'el-|le.|
w: |||||

